X: 32
T:Ty Coch Caerdydd
T:The Red House, Cardiff
M:C|
L:1/8
Q:220
C:Trad
S:Blodau'r Grug Collection Vol. 3
A:Wales
Z:brian_martin12345@yahoo.com
K:G
BA|G2g2 gf e2|d4 c2B2|c2e2edc2|BcBAG2BA|G2g2gfe2|
d4c2B2|B2G2FGAF|G2B2G2:||
Bc|dcBA GABc|d2d2dcBA|cBAG FGAB|c2c2cBAG|dcBA GABc|d2d2dcBA|
B2G2 FGAF|G2B2G2:||
G2|AB c2c2c2|AB c2c2c2|Bc ded2d2|!
Bc ded2d2|AB c2c2c2|AB c2c2c2|B2G2 FGAF|G2B2G2:||
